X:1
T:Mais languiray je
T:Mais languiray je
T:Jacob Clemens non Papa
C:Jacob Clemens non Papa
%%score [ 1 2 3 4 ]
L:1/8
Q:1/4=70
M:2/2
K:C
V:1 treble nm="Superius" snm="S"
V:2 treble nm="Altus" snm="A"
V:3 treble-8 nm="Tenor" snm="T"
V:4 bass nm="Bassus" snm="B"
V:1
 G4 AB c2 | B2 c2 A4 | c4 B2 A2 | c2 B2 A2 G2 | z2 G2 F2 A2 | G2 F3 G AF | GC c4 B2 | c4 z2 G2 | %8
w: Mais lan- gui- ray|je tous- jours,|vray dieu, que|cest grant pai- ne,|vray dieu, que|cest grant _ _ _|_ _ pai- *|ne, vray|
 A2 c2 B2 A2 | c2 d3 c c2- | c2 B2 c4 | z2 G2 AB c2 | B2 c2 A4 | c4 B2 A2 | c2 B2 A2 G2 | %15
w: dieu, que cest grant|pai- * * *|* * ne,|vi- vray je tous-|jours en pleurs|pour u- ne|que tant j'ay- me,|
 z2 G2 F2 A2 | G2 F3 G AF | GC c4 B2 | c4 z2 G2 | AB c2 B2 c2 | A2 A2 G2 A2 | B2 A2 c2 d2- | %22
w: pour u- ne|que tant _ _ _|_ _ j'ay- *|me, vi-|vray je tous- jours en|pleurs pour u- ne|que tant j'ay- *|
 dc c4 B2 | c8 | z8 | z2 c2 cccc | B2 A2 c2 cB | A2 G4 F2 | G2 C2 CDEF | GABG AB c2- | %30
w: |me,||je voys que point ne|m'ay- me car ail- leurs|prent se- *|cours, car ail- * * *|leurs _ _ _ prent _ se-|
 c2 BA B2 G2 | AB c2 G2 B2 | A2 G2 z2 G2 | AB c2 G2 B2 | A4 G4 | z2 G2 G2 G2 | A2 G2 F3 E/D/ | %37
w: * * * cours, nest|el- le pas bien vil-|lai- ne, nest|el- le pas bien vil-|lai- ne|quant el- le|faict telz- * * *|
 E4 z2 c2 |: c2 c2 B2 c2 | d2 c4 BA | B2 G3 GGG |"^#" A2 G2 F2 G2- | GGGG G2 A2 | G4 c3 c | %44
w: tours, cri-|ons tous d'u- ne'al-|lei- * * *|ne: fy fy fy fy|de telz a- mours|_ fy fy fy de telz|a- mours fy|
 c2 d3 c c2- | c2 B2 c4 |1[M:2/4] z2 c2 :|2[M:2/2] c2 B2 c4- || c8 |] %49
w: fy fy de telz|_ a- mours,|cri|(telz) a- mours.|_|
V:2
 z8 | z2 C2 DE F2 | E2 F2 D2 F2 | E2 D2 F2 E2 | D2 E2 D2 C2 | z2 C2 DE F2 | E2 F2 D4 | %7
w: |Mais lan- gui- ray|je tous- jours, vray|dieu, que cest grant|pai- * * ne,|que cest grant pai-|* * ne,|
 z2 C2 D2 E2 | F2 E2 G2 C2- | C2 G2 G2 A2 | G3 F ED E2 | D2 G4 F2 | G2 C2 DE F2 | E2 F2 D2 F2 | %14
w: vray dieu, que|cest grant pai- *|* ne, vray dieu,|que _ _ _ cest|grant pai- *|ne, vi- vray je tous-|jours en pleurs pour|
 E2 D2 F2 E2 | D2 E2 D2 C2 | z2 C2 DE F2 | E2 F2 D4 | z2 C2 D2 E2 | F2 E2 G4 | C4 z2 C2 | %21
w: u- ne que tant|j'ay- * * me,|pour u- ne que|tant j'ay- me,|pour u- ne|que tant j'ay-|me, pour|
 G2 C2 C2 G2- | G2 F2 G2 G2 | GGGG F2 ED | E4 z2 C2 | GGGG F2 E2 | G2 F2 G4 | F2 E2 D2 D2 | E6 DC | %29
w: u- ne que tant|_ j'ay- me, je|voys que point ne m'ay- * *|me, je|voys que point ne m'ay- *|* * me|car ail- leurs prent|se- * *|
 D2 G4 F2 | G3 F E2 D2 | z2 C2 EF G2 | C2 E4 D2 | E2 C4 B,2 | C3 D E2 D2 | E2 C2 E2 D2- | %36
w: |* * * cours,|nest el- le- pas|_ bien vil-|lai- * *||ne quant el- le|
 D2 C4 B,2 | C4 z2 G2 |: G2 F2 G2 G2 | A4 G4 | z2 D3 DDD | F2 D2 D2 E2- | EEEE D2 F2 | E2 G4 G2 | %44
w: _ faict telz|tours, cri-|ons tous d'u- ne'al-|lei- ne:|fy fy fy fy|de telz a- mours|_ fy fy fy de telz|a- mours fy|
 A2 B2 A4 | G4 G4 |1[M:2/4] z2 G2 :|2[M:2/2] G4 G4- || G8 |] %49
w: fy de telz|a- mours,|cri-|a- mours.|_|
V:3
 z8 | z8 | z8 | z2 G2 AB c2 | B2 c2 A4 | c4 _B2 A2 | c2 F2 G4 | cd ef g4 | z2 c2 d2 f2 | %9
w: |||Mais lan- gui- ray|je tous- jours,|vray dieu, que|cest grant pai-|* * * * ne,|vray dieu, que|
 e2 d2 e2 f2 | d4 c2 g2- | gf ed e2 c2 | e4 d3 c | A4 z4 | z2 G2 AB c2 | B2 c2 A4 | c4 _B2 A2 | %17
w: cest grant pai- *||||ne,|vi- vray tous- jours|en pleurs pour|u- ne que|
 c2 F2 G4 | cd ef g4 | z2 c2 d2 e2 | f2 e4 f2 | d2 f2 e2 d2 | e2 c2 d4 | c4 z4 | g2 gg gg f2 | %25
w: tant j'ay- *|* * * * me,|pour u- ne|que tant j'ay-|||me,|je voys que point ne m'ay-|
 e2 e2 cd ec | d2 d2 G2 c2 | cccc B2 A2 | c2 cB A2 A2 | G4 z4 | d2 ef g4 | c2 e4 d2 | c2 c2 ef g2 | %33
w: me car ail- * leurs _|prent se- cours, car|ail- leurs prent se- cours car|ail- leurs _ prent se-|cours,|nest el- le pas|bien vil- lai-|ne, nest el- le pas|
 c2 e4 d2- | d2 c4 B2 | c2 G2 c2 B2 | c4 d4 | G4 z2 e2 |: e2 c2 d2 e2 | f4 d4 | z2 B3 BBB | %41
w: bien vil- lai-||ne quant el- le|faict telz|tours, cri-|ons tous d'u- ne'al-|lei- ne:|fy fy fy fy|
 c2 B2 A2 c2- | cccc B2 c2 | c2 e3 e e2- | e2 g2 e2 fe | dc d2 c4 |1[M:2/4] z2 e2 :|2 %47
w: de telz a- mours|_ fy fy fy de telz|a- mours fy fy|_ de telz a- *|* * * mours,|cri-|
[M:2/2] dc d2 c4- || c8 |] %49
w: (a)- * * mours.|_|
V:4
 z8 | z8 | z8 | z8 | z2 C,2 D,E, F,2 | E,2 F,2 D,4 | z4 z2 G,2 | A,B, C2 B,2 C2 | A,2 A,2 G,2 F,2 | %9
w: ||||Mais lan- gui- ray|je tous- jours,|Mais|lan- gui- ray je tous-|jours, vray dieu, que|
 A,2 B,2 C2 F,2 | G,2 G,2 A,B, C2 | B,2 C2 A,2 A,2 | G,2 A,2 D,4 | z8 | z8 | z2 C,2 D,E, F,2 | %16
w: cest grant pai- *|ne, vi- vray je tous-|jours en pleurs, tous-|jours en pleurs,|||vi- vray- je tous-|
 E,2 F,2 D,4 | z4 z2 G,2 | A,B, C2 B,2 C2 | A,2 A,2 G,2 C,2 | F,G, A,B, C2 F,2 | G,2 F,2 A,2 B,2 | %22
w: jours en pleurs|pour|u- ne que tant j'ay-|me, pour u- ne|que _ _ _ _ tant|j'ay- * * *|
 C2 A,2 G,4 | C,4 z2 C2 | CCCC B,2 A,2 | C2 CB, A,2 A,2 | G,2 D,2 C,D, E,C, | F,2 C,2 D,4 | %28
w: |me, je|voys que point ne m'ay- me|car ail- * leurs prent|se- * * * * *||
 C,4 z2 C2 | C2 B,2 A,2 A,2 | G,8 | z4 z2 G,2 | A,B, C2 G,2 B,2 | A,3 G, E,2 G,2 | A,2 F,2 G,4 | %35
w: cours, car|ail- leurs prent se-|cours,|nest|el- le pas bien vil-|lai- * * *|* * ne,|
 z2 C,2 C,2 G,2 | F,2 E,2 D,4 | C,4 z2 C2 |: C2 A,2 G,2 C2 | F,4 G,4 | z2 G,3 G,G,G, | %41
w: quant el- le|faict telz _|tours, cri-|ons tous d'u- ne'al-|lei- ne:|fy fy fy fy|
 F,2 G,2 D,2 C,2- | C,C,C,C, G,2 F,2 | C,4 C3 C | A,2 G,2 A,2 F,2 | G,4 C,4 |1[M:2/4] z2 C2 :|2 %47
w: de telz a- mours,|_ fy fy fy de telz|a- mours fy|fy de telz a-|* mours,|cri-|
[M:2/2] G,4 C,4- || C,8 |] %49
w: (a)- mours.|_|

